res/Evolsex-dia2a.svg

<?xml version="1.0" encoding="UTF-8" standalone="no"?>
<!-- Created with Inkscape (http://www.inkscape.org/) -->
<svg
   xmlns:svg="http://www.w3.org/2000/svg"
   xmlns="http://www.w3.org/2000/svg"
   version="1.0"
   width="700"
   height="483"
   id="svg2453">
  <defs
     id="defs2456">
    <marker
       refX="0"
       refY="0"
       orient="auto"
       id="Arrow1Lend"
       style="overflow:visible">
      <path
         d="M 0,0 L 5,-5 L -12.5,0 L 5,5 L 0,0 z"
         transform="matrix(-0.8,0,0,-0.8,-10,0)"
         id="path3338"
         style="fill-rule:evenodd;stroke:#000000;stroke-width:1pt;marker-start:none" />
    </marker>
  </defs>
  <path
     d="M 414.9375,0.65625 C 314.76083,3.1297481 301.94203,36.320246 175,49.53125 C 368.51639,76.07108 370.41585,217.10413 520.0625,223.90625 L 520.0625,223.28125 L 699.375,224.53125 L 698.75,0.65625 L 414.9375,0.65625 z M 699.34375,258.34375 L 629.6875,259 C 569.51085,283.10163 555.45275,352.7529 445.40625,365.125 C 547.34778,401.39666 572.42466,463.44021 659.625,482.34375 C 683.22802,482.56503 700,482.34374 700,482.34375 L 699.34375,258.34375 z M 299.53125,285.03125 C 299.53125,285.03125 150.40335,286.34011 110.03125,333.875 C 263.05451,349.50291 299.53125,285.03125 299.53125,285.03125 z"
     id="path4124"
     style="fill:#ff0000;fill-opacity:1;fill-rule:evenodd;stroke:none;stroke-width:1px;stroke-linecap:butt;stroke-linejoin:miter;stroke-opacity:1" />
  <path
     d="M 700.65625,-0.8125 L 403.71875,2.4375 C 313.98332,24.399786 210.31904,141.14899 119.15625,152.21875 C 276.73765,185.42806 345.3766,217.48605 413.5,224.5 L 700.65625,226.4375 L 700.65625,-0.8125 z M 440.84375,257.03125 C 313.86699,257.03125 257.85901,383.36482 119.8125,410.0625 C 261.484,439.52557 350.2642,480.00582 442.125,483 C 535.62243,481.49556 699.34375,483 699.34375,483 L 698.03125,260.3125 L 440.84375,257.03125 z"
     id="path4122"
     style="fill:#00ff00;fill-opacity:1;fill-rule:evenodd;stroke:none;stroke-width:1px;stroke-linecap:butt;stroke-linejoin:miter;stroke-opacity:1" />
  <path
     d="M 566.46875,0.65625 L 403.71875,2.4375 C 361.07814,12.87357 315.28247,44.705137 269.1875,76.4375 C 374.91239,126.17165 399.72524,218.43637 520.0625,223.90625 L 520.0625,223.28125 L 699.375,224.53125 L 698.75,0.65625 L 566.46875,0.65625 z M 628.65625,259.4375 C 569.35739,283.92193 554.81327,352.82479 445.40625,365.125 C 547.34778,401.39666 572.42466,463.44021 659.625,482.34375 C 682.54533,482.55863 698.40967,482.35563 699.34375,482.34375 L 698.03125,260.3125 L 628.65625,259.4375 z"
     id="path2502"
     style="fill:#ffff00;fill-opacity:1;fill-rule:evenodd;stroke:none;stroke-width:1px;stroke-linecap:butt;stroke-linejoin:miter;stroke-opacity:1" />
  <text
     x="475.34885"
     y="92.953491"
     id="text3278"
     xml:space="preserve"
     style="font-size:36px;font-style:italic;font-weight:bold;text-align:start;text-anchor:start;fill:#000000;fill-opacity:1;stroke:none;stroke-width:1px;stroke-linecap:butt;stroke-linejoin:miter;stroke-opacity:1;font-family:Times New Roman;-inkscape-font-specification:Times New Roman Bold Italic"><tspan
       x="475.34885"
       y="92.953491"
       id="tspan3280">AB</tspan></text>
  <text
     x="579.53491"
     y="352.76746"
     id="text3286"
     xml:space="preserve"
     style="font-size:36px;font-style:italic;font-weight:bold;text-align:start;text-anchor:start;fill:#000000;fill-opacity:1;stroke:none;stroke-width:1px;stroke-linecap:butt;stroke-linejoin:miter;stroke-opacity:1;font-family:Times New Roman;-inkscape-font-specification:Times New Roman Bold Italic"><tspan
       x="579.53491"
       y="352.76746"
       id="tspan3288">AB</tspan></text>
  <text
     x="279.34888"
     y="160.67444"
     id="text3290"
     xml:space="preserve"
     style="font-size:36px;font-style:italic;font-weight:bold;text-align:start;text-anchor:start;fill:#000000;fill-opacity:1;stroke:none;stroke-width:1px;stroke-linecap:butt;stroke-linejoin:miter;stroke-opacity:1;font-family:Times New Roman;-inkscape-font-specification:Times New Roman Bold Italic"><tspan
       x="279.34888"
       y="160.67444"
       id="tspan3292">Ab</tspan></text>
  <text
     x="327.53491"
     y="361.23257"
     id="text3294"
     xml:space="preserve"
     style="font-size:36px;font-style:italic;font-weight:bold;text-align:start;text-anchor:start;fill:#000000;fill-opacity:1;stroke:none;stroke-width:1px;stroke-linecap:butt;stroke-linejoin:miter;stroke-opacity:1;font-family:Times New Roman;-inkscape-font-specification:Times New Roman Bold Italic"><tspan
       x="327.53491"
       y="361.23257"
       id="tspan3296">Ab</tspan></text>
  <text
     x="130.23259"
     y="119.00002"
     id="text3298"
     xml:space="preserve"
     style="font-size:36px;font-style:italic;font-weight:bold;text-align:start;text-anchor:start;fill:#000000;fill-opacity:1;stroke:none;stroke-width:1px;stroke-linecap:butt;stroke-linejoin:miter;stroke-opacity:1;font-family:Times New Roman;-inkscape-font-specification:Times New Roman Bold Italic"><tspan
       x="130.23259"
       y="119.00002"
       id="tspan3300">ab</tspan></text>
  <text
     x="47.534916"
     y="425.04654"
     id="text3302"
     xml:space="preserve"
     style="font-size:36px;font-style:italic;font-weight:bold;text-align:start;text-anchor:start;fill:#000000;fill-opacity:1;stroke:none;stroke-width:1px;stroke-linecap:butt;stroke-linejoin:miter;stroke-opacity:1;font-family:Times New Roman;-inkscape-font-specification:Times New Roman Bold Italic"><tspan
       x="47.534916"
       y="425.04654"
       id="tspan3304">ab</tspan></text>
  <text
     x="250.69771"
     y="61.046539"
     id="text3306"
     xml:space="preserve"
     style="font-size:36px;font-style:italic;font-weight:bold;text-align:start;text-anchor:start;fill:#000000;fill-opacity:1;stroke:none;stroke-width:1px;stroke-linecap:butt;stroke-linejoin:miter;stroke-opacity:1;font-family:Times New Roman;-inkscape-font-specification:Times New Roman Bold Italic"><tspan
       x="250.69771"
       y="61.046539"
       id="tspan3308">aB</tspan></text>
  <text
     x="197.30235"
     y="321.51166"
     id="text3310"
     xml:space="preserve"
     style="font-size:36px;font-style:italic;font-weight:bold;text-align:start;text-anchor:start;fill:#000000;fill-opacity:1;stroke:none;stroke-width:1px;stroke-linecap:butt;stroke-linejoin:miter;stroke-opacity:1;font-family:Times New Roman;-inkscape-font-specification:Times New Roman Bold Italic"><tspan
       x="197.30235"
       y="321.51166"
       id="tspan3312">aB</tspan></text>
  <rect
     width="695.89783"
     height="221.43718"
     x="2.0510886"
     y="1.5117337"
     id="rect3324"
     style="opacity:1;fill:none;fill-opacity:0.50196078;fill-rule:nonzero;stroke:#000000;stroke-width:4.10217714;stroke-linecap:butt;stroke-linejoin:miter;stroke-miterlimit:4;stroke-dasharray:none;stroke-opacity:1" />
  <rect
     width="695.89783"
     height="221.43718"
     x="2.0510886"
     y="259.51172"
     id="rect3326"
     style="opacity:1;fill:none;fill-opacity:0.50196078;fill-rule:nonzero;stroke:#000000;stroke-width:4.10217714;stroke-linecap:butt;stroke-linejoin:miter;stroke-miterlimit:4;stroke-dasharray:none;stroke-opacity:1" />
  <path
     d="M 550,233 L 675,233"
     id="path3330"
     style="fill:none;fill-rule:evenodd;stroke:#000000;stroke-width:1.5;stroke-linecap:round;stroke-linejoin:miter;marker-end:url(#Arrow1Lend);stroke-miterlimit:4;stroke-dasharray:none;stroke-opacity:1" />
  <text
     x="578.23254"
     y="251.83723"
     id="text4110"
     xml:space="preserve"
     style="font-size:24px;font-style:normal;font-weight:bold;text-align:start;text-anchor:start;fill:#000000;fill-opacity:1;stroke:none;stroke-width:1px;stroke-linecap:butt;stroke-linejoin:miter;stroke-opacity:1;font-family:Times New Roman;-inkscape-font-specification:Times New Roman Bold"><tspan
       x="578.23254"
       y="251.83723"
       id="tspan4112">Time</tspan></text>
</svg>

<?xml version="1.0" encoding="utf-8"?>
<!-- Generator: Adobe Illustrator 15.0.0, SVG Export Plug-In . SVG Version: 6.00 Build 0)  -->
<!DOCTYPE svg PUBLIC "-//W3C//DTD SVG 1.1//EN" "http://www.w3.org/Graphics/SVG/1.1/DTD/svg11.dtd">
<svg version="1.1" id="svg2453" xmlns:svg="http://www.w3.org/2000/svg"
	 xmlns="http://www.w3.org/2000/svg" xmlns:xlink="http://www.w3.org/1999/xlink" x="0px" y="0px" width="700px" height="483px"
	 viewBox="0 0 700 483" enable-background="new 0 0 700 483" xml:space="preserve">
<path id="path4124" fill="#FF0000" d="M414.938,0.656C314.761,3.13,301.942,36.32,175,49.531
	c193.517,26.54,195.416,167.573,345.063,174.375v-0.625l179.313,1.25L698.75,0.656H414.938z M699.344,258.344L629.688,259
	c-60.177,24.102-74.234,93.753-184.281,106.125c101.941,36.271,127.019,98.315,214.219,117.219c23.604,0.222,40.375,0,40.375,0
	L699.344,258.344z M299.531,285.031c0,0-149.128,1.309-189.5,48.844C263.055,349.503,299.531,285.031,299.531,285.031z"/>
<path id="path4122" fill="#00FF00" d="M700.656-0.813l-296.938,3.25c-89.735,21.962-193.4,138.711-284.563,149.781
	C276.738,185.428,345.377,217.486,413.5,224.5l287.156,1.938V-0.813z M440.844,257.031c-126.977,0-182.985,126.334-321.031,153.031
	C261.484,439.525,350.265,480.006,442.125,483c93.497-1.505,257.219,0,257.219,0l-1.313-222.688L440.844,257.031z"/>
<path id="path2502" fill="#FFFF00" d="M566.469,0.656l-162.75,1.781c-42.641,10.436-88.437,42.268-134.531,74
	c105.725,49.734,130.538,141.999,250.875,147.469v-0.625l179.313,1.25L698.75,0.656H566.469z M628.656,259.438
	c-59.299,24.484-73.843,93.387-183.25,105.688c101.941,36.271,127.019,98.315,214.219,117.219c22.92,0.215,38.785,0.012,39.719,0
	l-1.313-222.031L628.656,259.438z"/>
<text transform="matrix(1 0 0 1 475.3486 92.9531)" font-family="'TimesNewRomanPS-BoldItalicMT'" font-size="36">AB</text>
<text transform="matrix(1 0 0 1 579.5352 352.7676)" font-family="'TimesNewRomanPS-BoldItalicMT'" font-size="36">AB</text>
<text transform="matrix(1 0 0 1 279.3486 160.6748)" font-family="'TimesNewRomanPS-BoldItalicMT'" font-size="36">Ab</text>
<text transform="matrix(1 0 0 1 327.5352 361.2324)" font-family="'TimesNewRomanPS-BoldItalicMT'" font-size="36">Ab</text>
<text transform="matrix(1 0 0 1 130.2324 119)" font-family="'TimesNewRomanPS-BoldItalicMT'" font-size="36">ab</text>
<text transform="matrix(1 0 0 1 47.5352 425.0469)" font-family="'TimesNewRomanPS-BoldItalicMT'" font-size="36">ab</text>
<text transform="matrix(1 0 0 1 250.6978 61.0469)" font-family="'TimesNewRomanPS-BoldItalicMT'" font-size="36">aB</text>
<text transform="matrix(1 0 0 1 197.3022 321.5117)" font-family="'TimesNewRomanPS-BoldItalicMT'" font-size="36">aB</text>
<rect id="rect3324" x="2.051" y="1.512" fill="none" stroke="#000000" stroke-width="4.1022" width="695.898" height="221.437"/>
<rect id="rect3326" x="2.051" y="259.512" fill="none" stroke="#000000" stroke-width="4.1022" width="695.898" height="221.438"/>
<path fill="none" d=""/>
<path id="path3338" stroke="#000000" d="M660,233l-6,6l21-6l-21-6L660,233z"/>
<path id="path3330" stroke="#000000" d="M675,233"/>
<text transform="matrix(1 0 0 1 578.2324 251.8369)" font-family="'TimesNewRomanPS-BoldMT'" font-size="24">Time</text>
</svg>
